X:1
T:Title
L:1/8
M:4/4
K:Bb
V:1 treble nm="Grand Piano"
V:1
 z4 z2[Q:1/4=100] DE/G/- | GF =EF/D/- D2 D_E/F/- | FG FG/E/- E4- | E2 EE/E/- EC DE/F/- | %4
 F2 FF/G/- GG AB/c/- | c8- | c2 DE/G/- GF =EF/D/- | D2 FF/F/- FD FD/G/- | G8 | A2 DD/d/- d4- | %10
 dc BA/G/- G2 E2- | E3 A/A/ A>A- A/Bc/ | B4- BDEF | G2 GB A>B AG | F2 D2- DDEF | E>D C2 A A2 G | %16
 F/G/F E/F/E DDEF | G2 GB A>B AG | F2 D2- DDEF | E>D C2 A>B- Bc | B6 z2 |] %21

